X: 35415
T: Round The Horn
R: reel
M: 4/4
K: Gmajor
DEF|:G2G2BAGA|Bd2ed4|cdefe2g2|a6ga|
b2g2a2f2|gfed BAGB|A2d2BAG2|1 E4EDEF:|2 E8||
|:e3fe2d2|B4B2B2|A3AG2A2|B2d2d4|
g3ag2e2|dedc BAGB|A2d2BAG2|1 E4EGBd:|2 E6||

